fs/flag_24_filled.svg

<svg viewBox="0 0 24 24" fill="none" xmlns="http://www.w3.org/2000/svg" height="1em" width="1em">
  <path d="M3 3.74805C3 3.33383 3.33579 2.99805 3.75 2.99805H20.2541C20.8722 2.99805 21.225 3.70369 20.8541 4.19811L16.6898 9.74927L20.8541 15.3004C21.225 15.7948 20.8722 16.5005 20.2541 16.5005L4.5 16.5V21.2499C4.5 21.6296 4.21785 21.9434 3.85177 21.993L3.75 21.9999C3.3703 21.9999 3.05651 21.7177 3.00685 21.3517L3 21.2499V3.74805Z" fill="#212121"/>
</svg>

<svg viewBox="0 0 24 24" fill="none" xmlns="http://www.w3.org/2000/svg" height="1em" width="1em">
  <path d="M3 3.748a.75.75 0 0 1 .75-.75h16.504a.75.75 0 0 1 .6 1.2L16.69 9.75l4.164 5.551a.75.75 0 0 1-.6 1.2H4.5v4.75a.75.75 0 0 1-.648.743L3.75 22a.75.75 0 0 1-.743-.648L3 21.25V3.748Z" fill="#212121"/>
</svg>
